img/icon__sign__in.svg

<svg width="35" height="35" viewBox="0 0 35 35" fill="none" xmlns="http://www.w3.org/2000/svg">
<path d="M17.5 35C7.8505 35 0 27.1495 0 17.5C0 7.8505 7.8505 0 17.5 0C27.1495 0 35 7.8505 35 17.5C35 27.1495 27.1495 35 17.5 35ZM17.5 1.16667C8.49333 1.16667 1.16667 8.49333 1.16667 17.5C1.16667 26.5067 8.49333 33.8333 17.5 33.8333C26.5067 33.8333 33.8333 26.5067 33.8333 17.5C33.8333 8.49333 26.5067 1.16667 17.5 1.16667Z" fill="white"/>
<path d="M26.4134 22.9984L20.8577 21.0711L20.4809 18.0564C20.23 18.4146 19.8707 18.6934 19.4029 18.8392L19.7447 21.5751C19.7715 21.7956 19.922 21.9822 20.132 22.0534L26.0295 24.1021C27.0795 24.4684 28 25.7669 28 26.8799V26.8717C28 27.1937 28.2614 27.4551 28.5834 27.4551C28.9042 27.4551 29.1655 27.1949 29.1667 26.8741C29.1632 25.2652 27.93 23.5292 26.4134 22.9984ZM6.41671 27.4539C6.09471 27.4539 5.83337 27.1926 5.83337 26.8706V26.8787C5.83337 25.2699 7.06887 23.5292 8.58554 22.9984L14.1412 21.0839L14.1552 20.7572C14.1949 20.4376 14.4924 20.2147 14.8074 20.2509C15.1259 20.2906 15.3534 20.5822 15.3137 20.9031L15.2542 21.5902C15.2274 21.8107 15.0757 21.9962 14.8657 22.0686L8.96937 24.1009C7.92054 24.4684 7.00004 25.7669 7.00004 26.8787V26.8706C7.00004 27.1937 6.73871 27.4539 6.41671 27.4539Z" fill="white"/>
<path d="M17.5 19.8787C14.2578 19.8787 12.6093 17.7274 12.5988 12.3316C12.5965 10.9619 12.7423 9.57474 14.0303 8.28441C14.8505 7.46191 16.0172 7.04541 17.5 7.04541C18.9828 7.04541 20.1495 7.46191 20.9708 8.28558C22.2588 9.57474 22.4047 10.9631 22.4023 12.3327C22.3907 17.7274 20.7422 19.8787 17.5 19.8787ZM17.5 8.21208C16.3228 8.21208 15.4583 8.50608 14.8552 9.10924C14.1178 9.84774 13.7608 10.5092 13.7643 12.3304C13.7737 17.0181 14.9952 18.7132 17.4988 18.7132C20.0025 18.7132 21.224 17.0181 21.2333 12.3304C21.2368 10.5092 20.8798 9.84774 20.1425 9.10924C19.5417 8.50608 18.6772 8.21208 17.5 8.21208Z" fill="white"/>
</svg>

<svg width="35" height="35" fill="none" xmlns="http://www.w3.org/2000/svg"><path d="M17.5 35C7.85 35 0 27.15 0 17.5S7.85 0 17.5 0 35 7.85 35 17.5 27.15 35 17.5 35zm0-33.833C8.493 1.167 1.167 8.493 1.167 17.5c0 9.007 7.326 16.333 16.333 16.333 9.007 0 16.333-7.326 16.333-16.333 0-9.007-7.326-16.333-16.333-16.333z" fill="#fff"/><path d="M26.413 22.998l-5.555-1.927-.377-3.015c-.251.359-.61.637-1.078.783l.342 2.736c.026.22.177.407.387.478l5.897 2.05C27.08 24.467 28 25.766 28 26.88v-.008a.584.584 0 001.167.002c-.004-1.609-1.237-3.345-2.754-3.876zM6.417 27.454a.584.584 0 01-.584-.583v.008c0-1.61 1.236-3.35 2.753-3.88l5.555-1.915.014-.327a.59.59 0 01.652-.506c.319.04.546.331.507.652l-.06.687a.582.582 0 01-.388.479L8.969 24.1C7.921 24.468 7 25.767 7 26.879v-.008a.583.583 0 01-.583.583z" fill="#fff"/><path d="M17.5 19.879c-3.242 0-4.89-2.152-4.901-7.547-.002-1.37.143-2.757 1.431-4.048.82-.822 1.987-1.239 3.47-1.239s2.65.417 3.47 1.24c1.289 1.29 1.435 2.678 1.432 4.048-.011 5.394-1.66 7.546-4.902 7.546zm0-11.667c-1.177 0-2.042.294-2.645.897-.737.739-1.094 1.4-1.09 3.221.009 4.688 1.23 6.383 3.734 6.383s3.725-1.695 3.734-6.383c.004-1.82-.353-2.482-1.09-3.22-.601-.604-1.466-.898-2.643-.898z" fill="#fff"/></svg>
